packages/sources/assets/src/assets/flag-vc.svg

<svg width="28" height="20" viewBox="0 0 28 20" fill="none" xmlns="http://www.w3.org/2000/svg">
<rect width="28" height="20" rx="2" fill="white"/>
<mask id="mask0_503_3476" style="mask-type:alpha" maskUnits="userSpaceOnUse" x="0" y="0" width="28" height="20">
<rect width="28" height="20" rx="2" fill="white"/>
</mask>
<g mask="url(#mask0_503_3476)">
<rect x="13.3333" width="14.6667" height="20" fill="#08C47A"/>
<path fill-rule="evenodd" clip-rule="evenodd" d="M0 20H9.33333V0H0V20Z" fill="#0C87E1"/>
<path fill-rule="evenodd" clip-rule="evenodd" d="M8 20H20V0H8V20Z" fill="#FECB2F"/>
<path fill-rule="evenodd" clip-rule="evenodd" d="M9.33333 8L11.3333 4L13.3333 8L11.3333 12L9.33333 8ZM14.6667 8L16.6667 4L18.6667 8L16.6667 12L14.6667 8ZM14 9.33333L12 13.3333L14 17.3333L16 13.3333L14 9.33333Z" fill="#08C47A"/>
</g>
</svg>

<svg width="28" height="20" fill="none" xmlns="http://www.w3.org/2000/svg"><rect width="28" height="20" rx="2" fill="#fff"/><mask id="a" style="mask-type:alpha" maskUnits="userSpaceOnUse" x="0" y="0" width="28" height="20"><rect width="28" height="20" rx="2" fill="#fff"/></mask><g mask="url(#a)"><path fill="#08C47A" d="M13.333 0H28v20H13.333z"/><path fill-rule="evenodd" clip-rule="evenodd" d="M0 20h9.333V0H0v20Z" fill="#0C87E1"/><path fill-rule="evenodd" clip-rule="evenodd" d="M8 20h12V0H8v20Z" fill="#FECB2F"/><path fill-rule="evenodd" clip-rule="evenodd" d="m9.333 8 2-4 2 4-2 4-2-4Zm5.334 0 2-4 2 4-2 4-2-4ZM14 9.333l-2 4 2 4 2-4-2-4Z" fill="#08C47A"/></g></svg>
